static/images/mobile/copyright/wikipedia-wordmark-et.svg

<?xml version="1.0" encoding="UTF-8"?>
<svg width="120px" height="18px" viewBox="0 0 120 18" version="1.1" xmlns="http://www.w3.org/2000/svg" xmlns:xlink="http://www.w3.org/1999/xlink">
    <title>wikipedia-wordmark-et</title>
    <g id="Page-1" stroke="none" stroke-width="1" fill="none" fill-rule="evenodd">
        <path d="M17.2441329,-1.77635684e-15 C17.4047847,0.160651863 17.4047847,0.722933384 17.2441329,0.883585247 C15.5572883,1.07101242 15.1262065,2.10721726 14.6121202,3.37368913 L9.07766316,17.0290975 C8.92236669,17.4119845 8.72958412,17.6449296 8.43505571,17.6449296 C8.1673026,17.6449296 7.97987543,17.4467925 7.81922357,17.0290975 L2.53109974,3.3201385 C1.81887632,1.47264208 1.60735153,1.0174618 0.134709447,0.883585247 C-0.025942416,0.722933384 -0.0527177265,0.160651863 0.107934137,-1.77635684e-15 C0.991519384,0.0267753105 1.92062258,0.053550621 2.89256643,0.053550621 C3.85647761,0.053550621 5.06136658,0.0267753105 6.132379,-1.77635684e-15 C6.29303087,0.160651863 6.29303087,0.722933384 6.132379,0.883585247 C4.31165789,1.07101242 4.15636101,1.43247911 4.77754813,3.02561009 L9.03750019,13.9231615 L9.16066679,13.9231615 L13.3884882,3.18626195 C13.9614805,1.72968441 13.9507697,1.0174618 11.9693967,0.883585247 C11.8087448,0.722933384 11.8087448,0.160651863 11.9693967,-1.77635684e-15 C13.0671844,0.0267753105 14.2720734,0.053550621 14.8879055,0.053550621 C15.5037377,0.053550621 16.4408736,0.0267753105 17.2441329,-1.77635684e-15 Z M18.3754647,5.22329971 L18.4918228,5.22360965 C19.1879809,5.22360965 21.1733206,5.17204239 21.1733206,5.17204239 L21.1991042,5.22360965 L21.1991042,5.79084957 C21.1991042,5.86820046 21.1475369,5.91976773 21.0444024,5.91976773 L20.5029461,5.97232667 C19.7036535,6.04868589 19.4200336,6.25594663 19.4200336,6.77261095 L19.4200336,15.3585605 C19.4200336,15.9258004 19.6778699,16.2609877 20.5029461,16.3383386 L21.0444024,16.3908975 C21.1217533,16.3908975 21.1991042,16.4414731 21.1991042,16.5446076 L21.1991042,17.0860639 L21.1733206,17.1386228 C21.1733206,17.1386228 19.3878573,17.0907334 18.5303651,17.0863798 L18.4144719,17.0860639 C17.6925302,17.0860639 15.6814069,17.1386228 15.6814069,17.1386228 L15.6298396,17.0860639 L15.6298396,16.5446076 C15.6298396,16.4414731 15.7071905,16.3908975 15.810325,16.3908975 L16.3259977,16.3383386 C17.1768575,16.2609877 17.4346939,15.8484495 17.4346939,15.3585605 L17.4346939,6.77261095 C17.4346939,6.2073544 17.1242986,6.04967757 16.3259977,5.97431003 L15.810325,5.92075941 C15.7071905,5.92075941 15.6298396,5.89695913 15.6298396,5.81762488 L15.6298396,5.22360965 L15.6556232,5.17204239 C15.6556232,5.17204239 17.5115653,5.21902826 18.3754647,5.22329971 Z M27.0291801,15.3585605 C27.0291801,15.9258004 27.3643674,16.2094204 28.1120927,16.3383386 L28.3957126,16.3908975 C28.4730635,16.4156895 28.5504144,16.4414731 28.5504144,16.5446076 L28.5504144,17.0860639 L28.5246308,17.1386228 C28.5246308,17.1386228 26.900262,17.0860639 26.126753,17.0860639 C25.4048113,17.0860639 23.2905534,17.1386228 23.2905534,17.1386228 L23.2389862,17.0860639 L23.2389862,16.5446076 C23.2389862,16.4414731 23.3163371,16.3908975 23.4194716,16.3908975 L23.9351442,16.3383386 C24.7086532,16.2609877 25.0438404,15.8484495 25.0438404,15.3585605 L25.0438404,6.77261095 C25.0438404,6.2073544 24.7602205,6.04967757 23.9351442,5.97431003 L23.4194716,5.92075941 C23.3163371,5.92075941 23.2389862,5.89695913 23.2389862,5.81762488 L23.2389862,5.22360965 L23.2647698,5.17204239 C23.2647698,5.17204239 25.3790277,5.22360965 26.1783203,5.22360965 C26.9012536,5.22360965 28.5246308,5.17204239 28.5246308,5.17204239 L28.5504144,5.22360965 L28.5504144,5.79084957 C28.5504144,5.86820046 28.4988472,5.89398409 28.3957126,5.91976773 L28.1120927,5.97232667 C27.3128001,6.12603679 27.0291801,6.25594663 27.0291801,6.77261095 L27.0291801,10.6669311 C27.88004,10.6669311 28.369929,10.2305927 29.5044088,9.01677864 C30.5357541,7.88031546 31.3350467,6.93028778 31.3350467,6.43742373 C31.3350467,6.23016299 31.102994,6.00009366 30.5873214,5.92075941 C30.4841869,5.89695913 30.4326196,5.86919214 30.4326196,5.79184124 L30.4326196,5.19683434 L30.4584032,5.17303407 C30.4584032,5.17303407 32.5468775,5.22460133 33.2946028,5.22460133 C33.9649772,5.22460133 35.0994571,5.17303407 35.0994571,5.17303407 L35.176808,5.19683434 L35.176808,5.79184124 C35.176808,5.86919214 35.0994571,5.92075941 34.9705389,5.92075941 C33.9649772,5.9981103 33.2688192,6.04967757 32.3406084,7.10680649 L30.123216,9.65740274 C29.6848943,10.1234915 29.5301925,10.4051281 29.5301925,10.6123888 C29.5301925,10.7670906 29.633327,10.8950171 29.7622452,11.0497189 L33.6555736,15.74234 C33.9649772,16.1023191 34.5837844,16.2580126 35.0994571,16.3601555 L35.2283752,16.3849474 C35.3057261,16.4097394 35.4088606,16.4613066 35.4088606,16.5386575 L35.4088606,17.0801138 L35.3315097,17.1058975 C35.3315097,17.1058975 33.9649772,17.0801138 33.2430355,17.0801138 C32.5984447,17.0801138 31.670234,17.1058975 31.670234,17.1058975 L31.6444503,17.0801138 L31.6444503,16.7707102 C31.6444503,16.4345313 31.6186667,16.1528947 31.2576958,15.7403566 L28.3957126,12.1812237 C28.0089582,11.6645594 27.59642,11.5376245 27.0291801,11.5376245 L27.0291801,15.3585605 L27.0291801,15.3585605 Z M40.929533,15.3585605 C40.929533,15.9258004 41.1873693,16.2609877 42.0124456,16.3383386 L42.5539018,16.3908975 C42.6312527,16.3908975 42.7086036,16.4414731 42.7086036,16.5446076 L42.7086036,17.0860639 L42.68282,17.1386228 C42.68282,17.1386228 40.7232639,17.0860639 39.9239713,17.0860639 C39.2020296,17.0860639 37.1909063,17.1386228 37.1909063,17.1386228 L37.139339,17.0860639 L37.139339,16.5446076 C37.139339,16.4414731 37.2166899,16.3908975 37.3198245,16.3908975 L37.8354971,16.3383386 C38.686357,16.2609877 38.9441933,15.8484495 38.9441933,15.3585605 L38.9441933,6.77261095 C38.9441933,6.2073544 38.6347897,6.04967757 37.8354971,5.97431003 L37.3198245,5.92075941 C37.2166899,5.92075941 37.139339,5.89695913 37.139339,5.81762488 L37.139339,5.22360965 L37.1651227,5.17204239 C37.1651227,5.17204239 39.2020296,5.22360965 40.0013222,5.22360965 C40.6974803,5.22360965 42.68282,5.17204239 42.68282,5.17204239 L42.7086036,5.22360965 L42.7086036,5.79084957 C42.7086036,5.86820046 42.6570364,5.91976773 42.5539018,5.91976773 L42.0124456,5.97232667 C41.213153,6.04868589 40.929533,6.25594663 40.929533,6.77261095 L40.929533,15.3585605 Z M46.5007809,6.82318654 C46.5007809,6.02389393 46.1655937,5.9981103 44.953763,5.92075941 C44.7990612,5.92075941 44.7732776,5.84440019 44.7732776,5.79184124 L44.7732776,5.1988177 L44.8248448,5.17303407 C45.2115993,5.17303407 46.7328336,5.22460133 47.480559,5.22460133 C48.2025007,5.22460133 49.233846,5.17303407 50.1878404,5.17303407 C53.8471328,5.17303407 54.5175073,6.97689665 54.5175073,8.31962889 C54.5175073,9.86763851 53.7697819,12.2903083 50.1104895,12.2903083 C49.4658987,12.2903083 48.950226,12.2377493 48.485129,12.032472 L48.485129,15.4854953 C48.485129,16.0517436 48.7945325,16.1826451 49.6206005,16.3105716 L50.1372648,16.3879225 C50.2403993,16.4127144 50.3187419,16.4404814 50.3187419,16.5416326 L50.3187419,17.0830889 L50.2949416,17.1356478 C50.2949416,17.1356478 48.2312593,17.0830889 47.4319667,17.0830889 C46.710025,17.0830889 44.7762526,17.1356478 44.7762526,17.1356478 L44.750469,17.0830889 L44.750469,16.5416326 C44.750469,16.438498 44.8020362,16.4127144 44.9051708,16.3879225 L45.4466271,16.3105716 C46.2459197,16.207437 46.503756,15.9753843 46.503756,15.4854953 L46.5007809,6.82318654 L46.5007809,6.82318654 L46.5007809,6.82318654 Z M48.4861206,11.3105302 C49.0017933,11.517791 49.6463841,11.5425829 50.1620567,11.5425829 C51.7100664,11.5425829 52.4548167,10.6123888 52.4548167,8.62903248 C52.4548167,6.4116401 51.449255,5.92175108 50.0331386,5.92175108 C48.7945325,5.92175108 48.485129,6.15380377 48.485129,6.82417822 L48.4861206,11.3105302 L48.4861206,11.3105302 Z M58.9582421,17.0860639 C58.1847331,17.0860639 56.4066542,17.1386228 56.4066542,17.1386228 L56.3798788,17.0860639 L56.3798788,16.518824 C56.3798788,16.4682484 56.4066542,16.3908975 56.5345806,16.3908975 L57.1295875,16.3383386 C57.9298718,16.2609877 58.1619245,15.745315 58.1619245,15.230634 L58.1619245,6.72203536 C58.1619245,6.12702846 57.8525209,6.02488561 57.1295875,5.97431003 L56.5345806,5.92075941 C56.3798788,5.89695913 56.3798788,5.84440019 56.3798788,5.81762488 L56.3798788,5.22360965 L56.4066542,5.17204239 C56.4066542,5.17204239 58.4167858,5.22360965 59.1902948,5.22360965 L62.9804887,5.22360965 C63.7539977,5.22360965 65.5856273,5.17204239 65.5856273,5.17204239 L65.6391779,5.22360965 C65.6629782,6.33230584 65.8434636,7.33985086 66.0259324,8.31863721 L65.3833249,8.42177174 C65.1006967,7.46678567 64.6108076,6.10124483 62.9606552,6.10124483 L60.8979646,6.10124483 C60.4080756,6.10124483 60.1502392,6.28173026 60.1502392,6.71906033 L60.1502392,10.4586787 L62.08302,10.4586787 C62.8059534,10.4586787 62.9854471,10.1492751 63.0895733,9.63360246 L63.2432834,9.09214618 C63.2432834,9.01479529 63.2958424,8.96223634 63.3979852,8.96223634 L63.8343236,8.96223634 C63.8878743,8.96223634 63.8878743,8.98901165 63.8878743,9.03958724 C63.8343236,9.60583548 63.7331725,10.3297605 63.7331725,10.9485677 C63.7331725,11.5921668 63.836307,12.1346148 63.8878743,12.7276383 L63.8343236,12.7801973 L63.3979852,12.7801973 C63.2700588,12.7801973 63.2155165,12.7276383 63.2155165,12.6502874 L63.0865983,12.0840392 C62.9834638,11.5673749 62.7514111,11.2837549 62.0780616,11.2837549 L60.1462725,11.2837549 L60.1462725,15.2296424 C60.1462725,15.717548 60.4269175,16.207437 60.8939979,16.207437 L63.3434429,16.207437 C64.6584082,16.207437 65.3823333,15.3823608 65.6897535,14.0396286 L66.3323609,14.1169795 L65.8156966,17.0811055 L65.7641293,17.1326728 C65.7641293,17.1326728 64.242895,17.0811055 63.4693861,17.0811055 L58.9582421,17.0860639 L58.9582421,17.0860639 L58.9582421,17.0860639 Z M71.0041568,17.0860639 C70.2306478,17.0860639 68.4525689,17.1386228 68.4525689,17.1386228 L68.4257935,17.0860639 L68.4257935,16.518824 C68.4257935,16.4682484 68.4525689,16.3908975 68.5804953,16.3908975 L69.1755022,16.3383386 C69.9757865,16.2609877 70.2078392,15.745315 70.2078392,15.230634 L70.2078392,6.72203536 C70.2078392,6.12702846 69.8984356,6.02488561 69.1755022,5.97431003 L68.5804953,5.92075941 C68.4257935,5.89695913 68.4257935,5.84440019 68.4257935,5.81762488 L68.4257935,5.22360965 L68.4525689,5.17204239 C68.4525689,5.17204239 70.4627005,5.22360965 71.2362095,5.22360965 L75.0264034,5.22360965 C75.7999124,5.22360965 77.631542,5.17204239 77.631542,5.17204239 L77.6850926,5.22360965 C77.7088929,6.33230584 77.8893783,7.33985086 78.0718471,8.31863721 L77.4292396,8.42177174 C77.1466114,7.46678567 76.6567223,6.10124483 75.0065699,6.10124483 L72.9438793,6.10124483 C72.4539903,6.10124483 72.1961539,6.28173026 72.1961539,6.71906033 L72.1961539,10.4586787 L74.1289347,10.4586787 C74.8518681,10.4586787 75.0313618,10.1492751 75.135488,9.63360246 L75.2891981,9.09214618 C75.2891981,9.01479529 75.3417571,8.96223634 75.4438999,8.96223634 L75.8802383,8.96223634 C75.933789,8.96223634 75.933789,8.98901165 75.933789,9.03958724 C75.8802383,9.60583548 75.7790872,10.3297605 75.7790872,10.9485677 C75.7790872,11.5921668 75.8822217,12.1346148 75.933789,12.7276383 L75.8802383,12.7801973 L75.4438999,12.7801973 C75.3159735,12.7801973 75.2614312,12.7276383 75.2614312,12.6502874 L75.132513,12.0840392 C75.0293785,11.5673749 74.7973258,11.2837549 74.1239763,11.2837549 L72.1921872,11.2837549 L72.1921872,15.2296424 C72.1921872,15.717548 72.4728322,16.207437 72.9399126,16.207437 L75.3893576,16.207437 C76.7043229,16.207437 77.428248,15.3823608 77.7356682,14.0396286 L78.3782756,14.1169795 L77.8616113,17.0811055 L77.810044,17.1326728 C77.810044,17.1326728 76.2888097,17.0811055 75.5153008,17.0811055 L71.0041568,17.0860639 L71.0041568,17.0860639 L71.0041568,17.0860639 Z M80.7007859,16.3908975 L81.2938094,16.3383386 C82.0683101,16.2609877 82.3261464,16.028935 82.3261464,15.230634 L82.3261464,6.72203536 C82.3261464,6.04967757 82.1436776,6.04967757 81.2938094,5.97431003 L80.7285529,5.92075941 C80.6254184,5.92075941 80.5460841,5.86919214 80.5460841,5.79184124 L80.5460841,5.22460133 L80.5708761,5.17303407 C80.5708761,5.17303407 82.8408274,5.22460133 83.3059245,5.22460133 C83.7938301,5.22460133 86.0389895,5.17303407 86.7093639,5.17303407 C91.0152305,5.17303407 93.1304801,7.85453183 93.1304801,11.2837549 C93.1304801,15.7968823 89.932318,17.1356478 87.0723181,17.1356478 C85.0096275,17.1356478 84.1081921,17.0830889 83.3088995,17.0830889 C82.5343988,17.0830889 80.5738511,17.1356478 80.5738511,17.1356478 L80.5490591,17.0830889 L80.5490591,16.5416326 C80.5460841,16.4682484 80.5986431,16.3908975 80.7007859,16.3908975 Z M86.4515276,16.3908975 C89.2867355,16.3908975 90.887304,15.3357519 90.887304,11.7230684 C90.887304,9.04256228 90.2932888,5.92075941 85.9616386,5.92075941 C84.9560769,5.92075941 84.3114861,6.0754612 84.3114861,6.72203536 L84.3114861,15.230634 C84.3114861,15.9505924 84.4909799,16.3908975 86.4515276,16.3908975 Z M99.2174006,15.3585605 C99.2174006,15.9258004 99.475237,16.2609877 100.300313,16.3383386 L100.841769,16.3908975 C100.91912,16.3908975 100.996471,16.4414731 100.996471,16.5446076 L100.996471,17.0860639 L100.970688,17.1386228 C100.970688,17.1386228 99.0111316,17.0860639 98.2128307,17.0860639 C97.4898973,17.0860639 95.4797656,17.1386228 95.4797656,17.1386228 L95.4272067,17.0860639 L95.4272067,16.5446076 C95.4272067,16.4414731 95.5045576,16.3908975 95.6076921,16.3908975 L96.1243564,16.3383386 C96.9742246,16.2609877 97.2330526,15.8484495 97.2330526,15.3585605 L97.2330526,6.77261095 C97.2330526,6.2073544 96.9226574,6.04967757 96.1243564,5.97431003 L95.6076921,5.92075941 C95.5045576,5.92075941 95.4272067,5.89695913 95.4272067,5.81762488 L95.4272067,5.22360965 L95.4529903,5.17204239 C95.4529903,5.17204239 97.4898973,5.22360965 98.2872065,5.22360965 C98.9823729,5.22360965 100.969696,5.17204239 100.969696,5.17204239 L100.993496,5.22360965 L100.993496,5.79084957 C100.993496,5.86820046 100.939946,5.91976773 100.838794,5.91976773 L100.297338,5.97232667 C99.4970539,6.04868589 99.2144256,6.25594663 99.2144256,6.77261095 L99.2174006,15.3585605 L99.2174006,15.3585605 L99.2174006,15.3585605 Z M107.160743,16.3383386 L107.908468,16.3908975 C108.011603,16.3908975 108.114737,16.4682484 108.114737,16.5961749 L108.114737,17.0860639 L108.06317,17.1386228 C108.06317,17.1386228 105.252754,17.0860639 104.633947,17.0860639 C103.962581,17.0860639 102.312428,17.1386228 102.312428,17.1386228 L102.259869,17.0860639 L102.259869,16.5961749 C102.259869,16.4682484 102.33722,16.3908975 102.46713,16.3908975 C103.602602,16.3135466 104.245209,16.1062859 104.967151,14.4561334 L110.690125,1.04765289 C110.972754,0.377278449 111.180014,0.118450448 111.568752,0.118450448 C111.92774,0.118450448 112.05765,0.377278449 112.262927,0.892951096 L117.548572,14.8676798 C117.910534,15.8742332 118.427198,16.259996 119.458544,16.3631305 L119.741172,16.3879225 C119.871082,16.3879225 120,16.4642817 120,16.5951832 L120,17.0830889 L119.922649,17.1356478 C119.922649,17.1356478 117.937309,17.0830889 116.930756,17.0830889 C116.028329,17.0830889 113.500541,17.1356478 113.500541,17.1356478 L113.476741,17.0830889 L113.476741,16.5951832 C113.476741,16.4642817 113.528308,16.3879225 113.660201,16.3879225 L114.382143,16.3353635 C115.36093,16.2590043 115.723884,15.9476174 115.465056,15.227659 L113.892254,10.8682418 L108.527275,10.8682418 C107.908468,10.8682418 107.753766,10.9713763 107.62584,11.3045802 L106.129397,15.0441985 C105.871561,15.6927561 106.206748,16.2609877 107.160743,16.3383386 Z M113.477733,9.78731258 L110.97672,2.90407442 L110.925153,2.90407442 L108.34679,9.45311704 C108.243655,9.71293672 108.423149,9.78830426 108.990389,9.78830426 L113.477733,9.78830426 L113.477733,9.78731258 Z" id="wikipedia-wordmark-et" fill="#000000" fill-rule="nonzero"></path>
    </g>
</svg>

<svg xmlns="http://www.w3.org/2000/svg" width="120" height="18"><path fill="#000" fill-rule="nonzero" d="M17.244 0c.16.16.16.723 0 .884-1.687.187-2.118 1.223-2.632 2.49L9.078 17.029c-.156.383-.348.616-.643.616-.268 0-.455-.198-.616-.616L2.531 3.32C1.82 1.473 1.607 1.017.135.884-.025.723-.053.16.108 0 .992.027 1.92.054 2.893.054 3.856.054 5.06.027 6.133 0c.16.16.16.723 0 .884-1.821.187-1.977.548-1.355 2.142l4.26 10.897h.123l4.227-10.737c.573-1.456.563-2.169-1.419-2.302-.16-.161-.16-.723 0-.884 1.098.027 2.303.054 2.919.054.616 0 1.553-.027 2.356-.054Zm1.131 5.223h.117c.696 0 2.681-.051 2.681-.051l.026.052v.567c0 .077-.051.129-.155.129l-.541.052c-.8.077-1.083.284-1.083.8v8.587c0 .567.258.902 1.083.98l.541.052c.078 0 .155.05.155.154v.541l-.026.053s-1.785-.048-2.643-.053h-.116c-.721 0-2.733.053-2.733.053l-.051-.053v-.541c0-.104.077-.154.18-.154l.516-.053c.85-.077 1.109-.49 1.109-.98V6.774c0-.566-.31-.723-1.109-.799l-.516-.053c-.103 0-.18-.024-.18-.103v-.594l.026-.052s1.856.047 2.72.051ZM27.03 15.36c0 .567.335.85 1.083.98l.284.052c.077.025.154.05.154.154v.541l-.025.053s-1.625-.053-2.398-.053c-.722 0-2.836.053-2.836.053l-.052-.053v-.541c0-.104.077-.154.18-.154l.516-.053c.774-.077 1.109-.49 1.109-.98V6.774c0-.566-.284-.723-1.109-.799l-.516-.053c-.103 0-.18-.024-.18-.103v-.594l.026-.052s2.114.052 2.913.052c.723 0 2.347-.052 2.347-.052l.025.052v.567c0 .077-.051.103-.154.129l-.284.052c-.8.154-1.083.284-1.083.8v3.895c.851 0 1.34-.436 2.475-1.65 1.032-1.137 1.831-2.087 1.831-2.58 0-.207-.232-.437-.748-.516-.103-.024-.154-.052-.154-.13v-.594l.025-.024s2.089.052 2.837.052c.67 0 1.804-.052 1.804-.052l.078.024v.595c0 .077-.078.129-.206.129-1.006.077-1.702.129-2.63 1.186l-2.218 2.55c-.438.466-.593.748-.593.955 0 .155.103.283.232.438l3.894 4.692c.309.36.928.516 1.443.618l.13.025c.077.025.18.076.18.154v.541l-.077.026s-1.367-.026-2.089-.026c-.645 0-1.573.026-1.573.026l-.026-.026v-.31c0-.335-.025-.617-.386-1.03l-2.862-3.559c-.387-.516-.8-.643-1.367-.643v3.82Zm13.9 0c0 .567.258.902 1.083.98l.542.052c.077 0 .155.05.155.154v.541l-.026.053s-1.96-.053-2.759-.053c-.722 0-2.733.053-2.733.053l-.052-.053v-.541c0-.104.078-.154.18-.154l.516-.053c.851-.077 1.11-.49 1.11-.98V6.774c0-.566-.31-.723-1.11-.799l-.515-.053c-.103 0-.18-.024-.18-.103v-.594l.025-.052s2.037.052 2.836.052c.696 0 2.682-.052 2.682-.052l.026.052v.567c0 .077-.052.129-.155.129l-.542.052c-.799.077-1.082.284-1.082.8v8.587Zm5.572-8.536c0-.8-.335-.825-1.547-.902-.155 0-.18-.077-.18-.13V5.2l.05-.026c.388 0 1.909.052 2.657.052.722 0 1.753-.052 2.707-.052 3.66 0 4.33 1.804 4.33 3.147 0 1.548-.748 3.97-4.408 3.97-.644 0-1.16-.052-1.625-.258v3.453c0 .567.31.698 1.136.826l.516.077c.103.025.182.052.182.154v.541l-.024.053s-2.064-.053-2.863-.053c-.722 0-2.656.053-2.656.053l-.026-.053v-.541c0-.104.052-.13.155-.154l.542-.077c.799-.104 1.057-.336 1.057-.826L46.5 6.823Zm1.985 4.488c.516.207 1.16.232 1.676.232 1.548 0 2.293-.93 2.293-2.914 0-2.217-1.006-2.707-2.422-2.707-1.238 0-1.548.232-1.548.902l.001 4.487Zm10.472 5.775c-.773 0-2.551.053-2.551.053l-.027-.053v-.567c0-.05.027-.128.155-.128l.595-.053c.8-.077 1.032-.593 1.032-1.107V6.722c0-.595-.31-.697-1.032-.748l-.595-.053c-.155-.024-.155-.077-.155-.103v-.594l.027-.052s2.01.052 2.783.052h3.79c.774 0 2.606-.052 2.606-.052l.053.052c.024 1.108.204 2.116.387 3.095l-.643.103c-.282-.955-.772-2.32-2.422-2.32h-2.063c-.49 0-.748.18-.748.617v3.74h1.933c.723 0 .902-.31 1.007-.825l.153-.542c0-.077.053-.13.155-.13h.436c.054 0 .054.027.054.078-.054.566-.155 1.29-.155 1.909 0 .643.103 1.186.155 1.779l-.054.052h-.436c-.128 0-.182-.052-.182-.13l-.13-.566c-.103-.517-.335-.8-1.008-.8h-1.932v3.946c0 .488.28.977.748.977h2.45c1.314 0 2.038-.825 2.346-2.167l.642.077-.516 2.964-.052.052s-1.521-.052-2.295-.052l-4.51.005Zm12.046 0c-.773 0-2.551.053-2.551.053l-.027-.053v-.567c0-.05.027-.128.154-.128l.596-.053c.8-.077 1.032-.593 1.032-1.107V6.722c0-.595-.31-.697-1.032-.748l-.596-.053c-.154-.024-.154-.077-.154-.103v-.594l.027-.052s2.01.052 2.783.052h3.79c.774 0 2.606-.052 2.606-.052l.053.052c.024 1.108.204 2.116.387 3.095l-.643.103c-.282-.955-.772-2.32-2.422-2.32h-2.063c-.49 0-.748.18-.748.617v3.74h1.933c.723 0 .902-.31 1.006-.825l.154-.542c0-.077.053-.13.155-.13h.436c.054 0 .054.027.054.078-.054.566-.155 1.29-.155 1.909 0 .643.103 1.186.155 1.779l-.054.052h-.436c-.128 0-.183-.052-.183-.13l-.128-.566c-.104-.517-.336-.8-1.009-.8h-1.932v3.946c0 .488.28.977.748.977h2.45c1.314 0 2.038-.825 2.346-2.167l.642.077-.516 2.964-.052.052s-1.521-.052-2.295-.052l-4.51.005Zm9.697-.695.593-.053c.774-.077 1.032-.31 1.032-1.107V6.722c0-.672-.182-.672-1.032-.748l-.565-.053c-.104 0-.183-.052-.183-.13v-.566l.025-.052s2.27.052 2.735.052c.488 0 2.733-.052 3.403-.052 4.306 0 6.421 2.682 6.421 6.11 0 4.514-3.198 5.853-6.058 5.853-2.062 0-2.964-.053-3.763-.053-.775 0-2.735.053-2.735.053l-.025-.053v-.541a.144.144 0 0 1 .152-.151Zm5.75 0c2.836 0 4.436-1.055 4.436-4.668 0-2.68-.594-5.802-4.925-5.802-1.006 0-1.65.154-1.65.801v8.509c0 .72.179 1.16 2.14 1.16Zm12.766-1.032c0 .567.258.902 1.083.98l.542.052c.077 0 .154.05.154.154v.541l-.025.053s-1.96-.053-2.758-.053c-.723 0-2.733.053-2.733.053l-.053-.053v-.541c0-.104.078-.154.18-.154l.517-.053c.85-.077 1.11-.49 1.11-.98V6.774c0-.566-.311-.723-1.11-.799l-.516-.053c-.103 0-.18-.024-.18-.103v-.594l.025-.052s2.037.052 2.834.052c.695 0 2.683-.052 2.683-.052l.023.052v.567c0 .077-.053.129-.154.129l-.542.052c-.8.077-1.083.284-1.083.8l.003 8.587Zm7.944.98.747.052c.104 0 .207.077.207.205v.49l-.052.053s-2.81-.053-3.43-.053c-.67 0-2.32.053-2.32.053l-.053-.053v-.49c0-.128.077-.205.207-.205 1.136-.077 1.778-.285 2.5-1.935l5.723-13.408c.283-.67.49-.93.879-.93.359 0 .489.26.694.775l5.286 13.975c.362 1.006.878 1.392 1.91 1.495l.282.025c.13 0 .259.076.259.207v.488l-.077.053s-1.986-.053-2.992-.053c-.903 0-3.43.053-3.43.053l-.024-.053v-.488c0-.13.051-.207.183-.207l.722-.053c.979-.076 1.342-.387 1.083-1.107l-1.573-4.36h-5.365c-.619 0-.773.103-.901.437l-1.497 3.74c-.257.648.078 1.216 1.032 1.293Zm6.317-6.552-2.501-6.883h-.052l-2.578 6.55c-.103.259.076.334.643.334h4.488Z"/></svg>
